16x16/apps/net.bartkessels.getit.svg

<svg xmlns="http://www.w3.org/2000/svg" width="16" height="16" version="1">
 <rect style="fill:#2c6de3" width="8" height="4" x="-12" y="10" rx=".762" ry=".667" transform="scale(-1,1)"/>
 <rect style="fill:#53990f" width="8" height="4" x="4" y="3" rx=".762" ry=".667"/>
 <path style="fill:#3ba4fa" d="m10.707207 8.0003487a0.68714592 0.81850026 0 0 1 0.323408 0.1094956l2.312847 1.5904811 2.312847 1.5904806a0.68714592 0.81850026 0 0 1 0 1.417846l-2.312847 1.590481-2.312847 1.59128a0.68714592 0.81850026 0 0 1-1.030615-0.708923v-6.3627232a0.68714592 0.81850026 0 0 1 0.707207-0.8184181z"/>
 <path style="fill:#88d216" d="m5.2927939 1.0003489a0.68714592 0.81850018 0 0 0-0.3234094 0.1094957l-2.3128469 1.5904808-2.3128467 1.590481a0.68714592 0.81850018 0 0 0 0 1.417846l2.3128467 1.5904809 2.3128469 1.5912796a0.68714592 0.81850018 0 0 0 1.0306155-0.7089225v-6.3627232a0.68714592 0.81850018 0 0 0-0.7072061-0.8184183z"/>
</svg>

<svg xmlns="http://www.w3.org/2000/svg" width="16" height="16" version="1"><rect style="fill:#2c6de3" width="8" height="4" x="-12" y="10" rx=".762" ry=".667" transform="scale(-1 1)"/><rect style="fill:#53990f" width="8" height="4" x="4" y="3" rx=".762" ry=".667"/><path style="fill:#3ba4fa" d="M10.707 8a.687.819 0 0 1 .324.11l2.312 1.59 2.313 1.59a.687.819 0 0 1 0 1.419l-2.313 1.59-2.312 1.591A.687.819 0 0 1 10 15.181V8.82A.687.819 0 0 1 10.707 8z"/><path style="fill:#88d216" d="M5.293 1a.687.819 0 0 0-.324.11L2.657 2.7.344 4.29a.687.819 0 0 0 0 1.419l2.313 1.59L4.969 8.89A.687.819 0 0 0 6 8.181V1.82A.687.819 0 0 0 5.293 1z"/></svg>
